src/components/DocumentMultiFrame/assets/icon-flip-back.svg

<svg width="49" height="32" viewBox="0 0 49 32" fill="none" xmlns="http://www.w3.org/2000/svg">
<path d="M18.5957 27.2551C18.4184 27.2291 18.2419 27.2019 18.0662 27.1736L18.3852 26.9093L18.5957 27.2551ZM19.1368 27.1823L18.7744 26.587L18.9931 26.4059C19.098 26.4206 19.2033 26.4349 19.3088 26.4487V27.3531C19.2955 27.3514 19.2821 27.3497 19.2688 27.348C19.2192 27.3 19.1747 27.2446 19.1368 27.1823ZM19.8088 26.2287C19.8088 26.2141 19.8076 26.1997 19.8051 26.1857C19.9635 26.2305 20.1092 26.3249 20.219 26.4659C20.4362 26.745 20.4524 27.1288 20.2851 27.4289C20.2796 27.4327 20.274 27.4365 20.2683 27.4401C20.125 27.5336 19.9653 27.5766 19.8088 27.5735V26.2287ZM20.3072 25.8731C19.8753 25.5845 19.3022 25.5793 18.8537 25.881C18.6655 25.8536 18.4783 25.8248 18.2921 25.7948L15.9857 22.0065C15.742 21.6061 15.8631 21.0718 16.2542 20.8167C16.6403 20.5648 17.1452 20.6793 17.3858 21.0745L20.3072 25.8731ZM17.9844 26.2509L18.1225 26.4777L17.4159 27.0629C12.9278 26.2585 9.01047 24.709 6.10369 22.6601C2.73515 20.2857 0.75 17.2625 0.75 13.9649C0.75 10.183 3.36332 6.75964 7.67389 4.26795C11.9788 1.77952 17.9339 0.25 24.5 0.25C31.0661 0.25 37.0212 1.77952 41.3261 4.26795C45.6367 6.75964 48.25 10.183 48.25 13.9649C48.25 17.1182 46.4353 20.0199 43.3309 22.3444C40.2866 24.624 36.0233 26.3298 31.1029 27.1459V26.2362C35.7476 25.4456 39.7682 23.8432 42.6467 21.7288C45.566 19.5844 47.3382 16.8898 47.3382 13.9649C47.3382 10.4139 44.7296 7.205 40.6139 4.89833C36.4891 2.58657 30.7984 1.14649 24.5 1.14649C18.2016 1.14649 12.5109 2.58657 8.38614 4.89833C4.27043 7.205 1.66176 10.4139 1.66176 13.9649C1.66176 17.0343 3.61289 19.8495 6.79491 22.043C9.65458 24.0143 13.5348 25.5045 17.9844 26.2509ZM19.0609 27.825C19.2278 27.9465 19.4195 28.0252 19.6194 28.0574L15.3923 31.558C15.0324 31.8561 14.5172 31.7998 14.2369 31.4397C13.9528 31.0748 14.0125 30.5307 14.3768 30.2289L17.5568 27.5954C18.0519 27.681 18.5534 27.7576 19.0609 27.825Z" fill="#FCFCFD" stroke="#F7F9FA" stroke-width="0.5" stroke-linecap="round" stroke-linejoin="round"/>
</svg>

<svg width="49" height="32" fill="none" xmlns="http://www.w3.org/2000/svg">
  <path d="M18.596 27.255a38.016 38.016 0 0 1-.53-.081l.32-.265.21.346Zm.54-.073-.362-.595.22-.181.315.043v.904l-.04-.005a.832.832 0 0 1-.132-.166Zm.673-.953a.245.245 0 0 0-.004-.043c.159.044.304.139.414.28.217.279.233.663.066.963a.809.809 0 0 1-.476.145v-1.345Zm.498-.356a1.304 1.304 0 0 0-1.453.008 37.451 37.451 0 0 1-.562-.086l-2.306-3.789a.884.884 0 0 1 .268-1.19.801.801 0 0 1 1.132.259l2.921 4.798Zm-2.323.378.138.227-.706.585c-4.488-.804-8.406-2.354-11.312-4.403C2.735 20.286.75 17.262.75 13.965c0-3.782 2.613-7.205 6.924-9.697C11.979 1.78 17.934.25 24.5.25c6.566 0 12.521 1.53 16.826 4.018 4.31 2.492 6.924 5.915 6.924 9.697 0 3.153-1.815 6.055-4.92 8.38-3.043 2.279-7.307 3.985-12.227 4.8v-.909c4.645-.79 8.665-2.393 11.544-4.507 2.919-2.145 4.691-4.84 4.691-7.764 0-3.551-2.608-6.76-6.724-9.067-4.125-2.311-9.816-3.752-16.114-3.752S12.51 2.586 8.386 4.898c-4.116 2.307-6.724 5.516-6.724 9.067 0 3.07 1.95 5.884 5.133 8.078 2.86 1.971 6.74 3.462 11.19 4.208Zm1.077 1.574c.167.122.358.2.558.232l-4.227 3.501a.803.803 0 0 1-1.155-.118.882.882 0 0 1 .14-1.211l3.18-2.634c.495.086.996.163 1.504.23Z" fill="#FCFCFD" stroke="#F7F9FA" stroke-width=".5" stroke-linecap="round" stroke-linejoin="round"/>
</svg>
